_editor/libs/builder/icons/facebook.svg

<?xml version="1.0" ?><svg height="60px" version="1.1" viewBox="0 0 60 60" width="60px" xmlns="http://www.w3.org/2000/svg" xmlns:xlink="http://www.w3.org/1999/xlink"><title/><desc/><defs/><g fill="none" fill-rule="evenodd" id="Page-1" stroke="none" stroke-width="1"><g id="Facebook" stroke="#000000" stroke-width="2" transform="translate(1.000000, 1.000000)"><path d="M39.0432,58 L39.0432,35.696 L46.2462,35.696 L47.3202,27.003 L39.0432,27.003 L39.0432,21.454 C39.0432,18.94 39.7132,17.225 43.1872,17.225 L47.6142,17.219 L47.6142,9.45 C46.8472,9.342 44.2202,9.102 41.1612,9.102 C34.7782,9.102 30.4082,13.157 30.4082,20.596 L30.4082,27.003 L23.1822,27.003 L23.1822,35.696 L30.4082,35.696 L30.4082,58 L39.0432,58 L39.0432,58 Z" id="Stroke-1"/><path d="M54,58 L4,58 C1.791,58 0,56.209 0,54 L0,4 C0,1.791 1.791,0 4,0 L54,0 C56.209,0 58,1.791 58,4 L58,54 C58,56.209 56.209,58 54,58 L54,58 Z" id="Stroke-99" stroke-linejoin="round"/></g></g></svg>

<svg height="60" viewBox="0 0 60 60" width="60" xmlns="http://www.w3.org/2000/svg"><g fill="none" fill-rule="evenodd" stroke="#000" stroke-width="2" transform="translate(1 1)"><path d="m39.0432 58v-22.304h7.203l1.074-8.693h-8.277v-5.549c0-2.514.67-4.229 4.144-4.229l4.427-.006v-7.769c-.767-.108-3.394-.348-6.453-.348-6.383 0-10.753 4.055-10.753 11.494v6.407h-7.226v8.693h7.226v22.304z"/><path d="m54 58h-50c-2.209 0-4-1.791-4-4v-50c0-2.209 1.791-4 4-4h50c2.209 0 4 1.791 4 4v50c0 2.209-1.791 4-4 4z" stroke-linejoin="round"/></g></svg>
